X:35
T:Lord Strathaven's Strathspey
C:Robert Petrie
S:Petrie's Third Collection of Strathspey Reels and Country Dances &c.
Z:Steve Wyrick , 7/30/05
N:Petrie's Third Collection, page 14 and 15
L:1/8
M:C
R:Strathspey
K:F
A|:F<cA<c d/c/B/A/ Tc2|F<cA<c d<GB<d|F<cA<c d/c/B/A/ Tc2|B>c d/c/B/A/ GABd:|
f>c f/g/a/g/ f<cf<a|c>f b/a/g/f/ e<g-g>a|f>c f/g/a/g/|f<cf>d|c<AG>B AFFc|
f>c f/g/a/g/ f<cf<a|F>f b/a/g/f/ e<g-g>a|b<ga<e f<cf>d|c<AG>B A<FF|]
